!!!SOCIAL_FUNCTION:	flower dance songs
!!!PDT:	1957
!!!OTL: No_29_Song_Concerning_a_Visit_to_Other_Pueblos.krn
!!!LING_GROUP: Keresan
!!!LANG: Tone
!!!REG: Southwest
**kern
*staff1
=1-
*clefF4
*k[]
*M2/4
16G\LL
16G\J
8E\J
16G\LL
16G\J
8E\J
=2
8E\L
8E\J
8E\L
8E\J
=3!|:
16e\LK
8.e\J
16f\LL
16e\
16e\
16d\JJ
=4
16d\LK
8.A\J
16c\LL
16A\
16A\
16G\JJ
=5
16A\LK
8G\
16E\Jk
8E\L
8E\J
=6
8E\L
8G\J
16A\LK
8.E\J
=7
16E\LL
16C\J
8E\J
8E\
8r
=8
8G\L
8G\J
16c\LK
8A\
16G\Jk
=9
8E\L
8E\J
8E\L
8E\J
=10
16G\LK
8.G\J
24c\LL
24A\
24A\JJ
16G\LL
16E\JJ
=11
8G\L
8G\J
12A\L
12A\
12G\J
=12
8E\L
8E\J
8E\L
8G\J
=13
8G\L
8G\J
8E\
8r
=14
16E\LK
8.E\J
8E\L
8E\J
=15
8G\L
8G\J
16c\LK
8A\
16G\Jk
=16
8E\L
8E\J
8E\L
16E\Jk
16r
=17
16G\LK
8.G\J
24c\LL
24A\
24A\JJ
16G\LL
16E\JJ
=18
8G\
8r
12A\L
12A\
12G\J
=19
8E\L
8E\J
8E\L
8G\J
=20
8G\L
8G\J
8E\
8r
=21
16C/LK
8.E/J
8E\L
8E\J
=22
8G\L
8G\J
16A\LK
8G\
16G\Jk
=23
16c\LL
16A\
16G\
16E\JJ
8E\L
8G\J
=24
8G\L
16E\L
16E\JJ
8C/L
8E/J
=25
8E\L
8E\J
32G\LLK
16.E\
16.G\
32G\JJk
=26
*M3/8
8E\
8r
8E\
=27
*M2/4
16A\LL
16A\J
8G\J
8G\L
8A\J
=28
12A\L
12G\
12E\J
16E\LL
16E\J
8G\J
=29
*M3/4
16G\LK
8E\
16E\Jk
16G\LL
16E\
16.E\
32E\JJk
4G\
=30
16G\LL
16G\J
8E\J
8G\L
8G\J
8E\
8r
=31
*M2/4
16E\LK
8.E\J
8E\L
8E\J
==:|!
*-
